assets/icons/godot.svg

<svg height="1024" width="1024" xmlns="http://www.w3.org/2000/svg"><g fill="currentColor"><path d="m417.61523 76.875c-42.39203 9.424151-84.32671 22.54494-123.64257 42.33398.89912 34.71618 3.14362 67.97967 7.69336 101.76758-15.26846 9.78214-31.31507 18.17757-45.57618 29.62891-14.49005 11.14747-29.2896 21.81231-42.41015 34.84961-26.21196-17.33728-53.95467-33.6299-82.53516-48.01172C100.33705 270.59856 71.53124 306.38342 48 346.42773c18.493057 29.02877 38.32949 58.20569 56.69922 80.95899v197.7832 25.1211 22.86132c.44956.00417.89835.02088 1.34375.0625l150.66992 14.52735c7.89231.76176 14.07749 7.11448 14.62695 15.02343l4.64649 66.50977 131.42969 9.37891 9.05468-61.38672c1.17386-7.95891 8.00029-13.85742 16.05078-13.85742h158.96094c8.04633.0 14.87302 5.89851 16.04688 13.85742l9.05468 61.38672 131.4336-9.37891 4.64258-66.50977c.55362-7.90895 6.73464-14.25751 14.62695-15.02343l150.61133-14.52735c.4454-.04162.89028-.05833 1.33984-.0625v-19.61132l.0625-.01954V427.38672c21.2165-26.70928 41.30684-56.1715 56.69922-80.95899-23.52291-40.04431-52.34486-75.82917-83.15234-108.98437-28.57217 14.38182-56.32515 30.67444-82.53711 48.01172-13.11639-13.0373-27.88953-23.70214-42.40039-34.84961-14.25695-11.45134-30.32318-19.84677-45.5625-29.62891 4.53724-33.78791 6.7803-67.0514 7.68359-101.76758-39.32002-19.78904-81.24927-32.909829-123.66211-42.33398-16.9335 28.45977-32.41939 59.27922-45.90625 89.4082-15.99275-2.67239-32.05995-3.66203-48.14844-3.85351v-.02539c-.11239.0-.21676.02539-.3125.02539-.0999.0-.20478-.02539-.30468-.02539v.02539c-16.11763.19148-32.17106 1.18112-48.16797 3.85351-13.47854-30.12898-28.95559-60.94843-45.91407-89.4082zM298.41602 436.39844c50.15113.0 90.79882 40.61746 90.79882 90.75195.0 50.16779-40.64769 90.80859-90.79882 90.80859-50.12617.0-90.78711-40.6408-90.78711-90.80859.0-50.13449 40.66094-90.75195 90.78711-90.75195zm427.17773.0c50.122.0 90.7793 40.61746 90.7793 90.75195.0 50.16779-40.6573 90.80859-90.7793 90.80859-50.15946.0-90.80664-40.6408-90.80664-90.80859.0-50.13449 40.64718-90.75195 90.80664-90.75195zm-213.59961 53.10937c16.14261.0 29.25391 11.90816 29.25391 26.56055v83.58984c0 14.66488-13.1113 26.5625-29.25391 26.5625-16.1426.0-29.22656-11.89762-29.22656-26.5625v-83.58984c0-14.65239 13.08396-26.56055 29.22656-26.56055z" stroke-width="4.16261"/><path d="m0 0-1.121-16.063c-.135-1.936-1.675-3.477-3.611-3.616l-38.555-2.751c-.094-.007-.188-.01-.281-.01-1.916.0-3.569 1.406-3.852 3.33l-2.211 14.994H-81.09l-2.211-14.994c-.297-2.018-2.101-3.469-4.133-3.32l-38.555 2.751c-1.936.139-3.476 1.68-3.611 3.616L-130.721.0l-32.547 3.138c.015-3.498.06-7.33.06-8.093.0-34.374 43.605-50.896 97.781-51.086h.066.067c54.176.19 97.766 16.712 97.766 51.086.0.777.047 4.593.063 8.093z" transform="matrix(4.162611 0 0 -4.162611 784.07144 718.723121)"/><path d="m0 0c0-7.994-6.479-14.473-14.479-14.473-7.996.0-14.479 6.479-14.479 14.473s6.483 14.479 14.479 14.479C-6.479 14.479.0 7.994.0.0" transform="matrix(4.162611 0 0 -4.162611 367.36686 532.537071)"/><path d="m0 0c0-7.994 6.477-14.473 14.471-14.473C22.473-14.473 28.95-7.994 28.95.0s-6.477 14.479-14.479 14.479C6.477 14.479.0 7.994.0.0" transform="matrix(4.162611 0 0 -4.162611 656.64056 532.537071)"/></g></svg>

<?xml version="1.0" encoding="UTF-8" standalone="no"?>
<!DOCTYPE svg PUBLIC "-//W3C//DTD SVG 1.1//EN" "http://www.w3.org/Graphics/SVG/1.1/DTD/svg11.dtd">
<svg width="100%" height="100%" viewBox="0 0 1024 1024" version="1.1" xmlns="http://www.w3.org/2000/svg" xmlns:xlink="http://www.w3.org/1999/xlink" xml:space="preserve" xmlns:serif="http://www.serif.com/" style="fill-rule:evenodd;clip-rule:evenodd;stroke-linejoin:round;stroke-miterlimit:2;">
    <path d="M417.615,76.875C375.223,86.299 333.289,99.42 293.973,119.209C294.872,153.925 297.116,187.189 301.666,220.977C286.398,230.759 270.351,239.154 256.09,250.605C241.6,261.753 226.8,272.418 213.68,285.455C187.468,268.118 159.725,251.825 131.145,237.443C100.337,270.599 71.531,306.383 48,346.428C66.493,375.457 86.329,404.633 104.699,427.387L104.699,673.152C105.149,673.157 105.598,673.173 106.043,673.215L256.713,687.742C264.605,688.504 270.79,694.857 271.34,702.766L275.986,769.275L407.416,778.654L416.471,717.268C417.645,709.309 424.471,703.41 432.521,703.41L591.482,703.41C599.529,703.41 606.355,709.309 607.529,717.268L616.584,778.654L748.018,769.275L752.66,702.766C753.214,694.857 759.395,688.508 767.287,687.742L917.898,673.215C918.344,673.173 918.789,673.157 919.238,673.152L919.238,653.541L919.301,653.521L919.301,427.387C940.517,400.677 960.608,371.215 976,346.428C952.477,306.383 923.655,270.599 892.848,237.443C864.275,251.825 836.523,268.118 810.311,285.455C797.194,272.418 782.421,261.753 767.91,250.605C753.653,239.154 737.587,230.759 722.348,220.977C726.885,187.189 729.128,153.925 730.031,119.209C690.711,99.42 648.782,86.299 606.369,76.875C589.436,105.335 573.95,136.154 560.463,166.283C544.47,163.611 528.403,162.621 512.314,162.43L512.314,162.404C512.202,162.404 512.098,162.43 512.002,162.43C511.902,162.43 511.797,162.404 511.697,162.404L511.697,162.43C495.58,162.621 479.526,163.611 463.529,166.283C450.051,136.154 434.574,105.335 417.615,76.875ZM298.416,436.398C348.567,436.398 389.215,477.016 389.215,527.15C389.215,577.318 348.567,617.959 298.416,617.959C248.29,617.959 207.629,577.318 207.629,527.15C207.629,477.016 248.29,436.398 298.416,436.398ZM725.594,436.398C775.716,436.398 816.373,477.016 816.373,527.15C816.373,577.318 775.716,617.959 725.594,617.959C675.434,617.959 634.787,577.318 634.787,527.15C634.787,477.016 675.434,436.398 725.594,436.398ZM511.994,489.508C528.137,489.508 541.248,501.416 541.248,516.068L541.248,599.658C541.248,614.323 528.137,626.221 511.994,626.221C495.852,626.221 482.768,614.323 482.768,599.658L482.768,516.068C482.768,501.416 495.852,489.508 511.994,489.508Z" style="fill-rule:nonzero;"/>
    <g transform="matrix(4.16261,0,0,-4.16261,784.071,718.723)">
        <path d="M0,0L-1.121,-16.063C-1.256,-17.999 -2.796,-19.54 -4.732,-19.679L-43.287,-22.43C-43.381,-22.437 -43.475,-22.44 -43.568,-22.44C-45.484,-22.44 -47.137,-21.034 -47.42,-19.11L-49.631,-4.116L-81.09,-4.116L-83.301,-19.11C-83.598,-21.128 -85.402,-22.579 -87.434,-22.43L-125.989,-19.679C-127.925,-19.54 -129.465,-17.999 -129.6,-16.063L-130.721,0L-163.268,3.138C-163.253,-0.36 -163.208,-4.192 -163.208,-4.955C-163.208,-39.329 -119.603,-55.851 -65.427,-56.041L-65.294,-56.041C-11.118,-55.851 32.472,-39.329 32.472,-4.955C32.472,-4.178 32.519,-0.362 32.535,3.138L0,0Z" style="fill-rule:nonzero;"/>
    </g>
    <g transform="matrix(4.16261,0,0,-4.16261,367.367,532.537)">
        <path d="M0,0C0,-7.994 -6.479,-14.473 -14.479,-14.473C-22.475,-14.473 -28.958,-7.994 -28.958,0C-28.958,7.994 -22.475,14.479 -14.479,14.479C-6.479,14.479 0,7.994 0,0" style="fill-rule:nonzero;"/>
    </g>
    <g transform="matrix(4.16261,0,0,-4.16261,656.641,532.537)">
        <path d="M0,0C0,-7.994 6.477,-14.473 14.471,-14.473C22.473,-14.473 28.95,-7.994 28.95,0C28.95,7.994 22.473,14.479 14.471,14.479C6.477,14.479 0,7.994 0,0" style="fill-rule:nonzero;"/>
    </g>
</svg>
